svgs/regular/calendar-circle-plus.svg

<svg xmlns="http://www.w3.org/2000/svg" viewBox="0 0 576 512"><!--! Font Awesome Pro 6.6.0 by @fontawesome - https://fontawesome.com License - https://fontawesome.com/license (Commercial License) Copyright 2024 Fonticons, Inc. --><path d="M128 0c13.3 0 24 10.7 24 24l0 40 144 0 0-40c0-13.3 10.7-24 24-24s24 10.7 24 24l0 40 40 0c35.3 0 64 28.7 64 64l0 16 0 48-16 0-32 0-48 0L48 192l0 256c0 8.8 7.2 16 16 16l220.5 0c12.3 18.8 28 35.1 46.3 48L64 512c-35.3 0-64-28.7-64-64L0 192l0-48 0-16C0 92.7 28.7 64 64 64l40 0 0-40c0-13.3 10.7-24 24-24zM432 224a144 144 0 1 1 0 288 144 144 0 1 1 0-288zm16 80c0-8.8-7.2-16-16-16s-16 7.2-16 16l0 48-48 0c-8.8 0-16 7.2-16 16s7.2 16 16 16l48 0 0 48c0 8.8 7.2 16 16 16s16-7.2 16-16l0-48 48 0c8.8 0 16-7.2 16-16s-7.2-16-16-16l-48 0 0-48z"/></svg>

<svg xmlns="http://www.w3.org/2000/svg" viewBox="0 0 576 512"><!--! Font Awesome Pro 6.4.0 by @fontawesome - https://fontawesome.com License - https://fontawesome.com/license (Commercial License) Copyright 2023 Fonticons, Inc. --><path d="M128 0c13.3 0 24 10.7 24 24V64H296V24c0-13.3 10.7-24 24-24s24 10.7 24 24V64h40c35.3 0 64 28.7 64 64v16 48H432 400 352 48V448c0 8.8 7.2 16 16 16H284.5c12.3 18.8 28 35.1 46.3 48H64c-35.3 0-64-28.7-64-64V192 144 128C0 92.7 28.7 64 64 64h40V24c0-13.3 10.7-24 24-24zM432 224a144 144 0 1 1 0 288 144 144 0 1 1 0-288zm16 80c0-8.8-7.2-16-16-16s-16 7.2-16 16v48H368c-8.8 0-16 7.2-16 16s7.2 16 16 16h48v48c0 8.8 7.2 16 16 16s16-7.2 16-16V384h48c8.8 0 16-7.2 16-16s-7.2-16-16-16H448V304z"/></svg>
